html/images/os/avaya.svg

<svg viewBox="0 0 350 100" xmlns="http://www.w3.org/2000/svg" xmlns:xlink="http://www.w3.org/1999/xlink"><defs><path id="a" d="m0 72 34-72h10l34 72h-14l-25-54-15 33h23l5 10h-33l-5 11z" fill="#c00"/></defs><use x="4" xlink:href="#a" y="1"/><path d="m0 0 34 72h10l34-72h-14l-25 55-25-55z" fill="#c00" transform="translate(69 1)"/><use x="133" xlink:href="#a" y="1"/><path d="m0 0 30 71-13 27h14l47-98h-15l-26 56-22-56z" fill="#c00" transform="translate(200 1)"/><use x="264" xlink:href="#a" y="1"/></svg>

<svg xmlns="http://www.w3.org/2000/svg" xmlns:xlink="http://www.w3.org/1999/xlink" version="1" viewBox="0 0 350 100"><defs><path fill="#C00" d="M0 72L34 0h10l34 72H64L39 18 24 51h23l5 10H19l-5 11z" id="a"/><path fill="#C00" d="M0 0l34 72h10L78 0H64L39 55 14 0z" id="b"/><path fill="#C00" d="M0 0l30 71-13 27h14L78 0H63L37 56 15 0z" id="c"/></defs><use x="4" y="1" xlink:href="#a"/><use x="69" y="1" xlink:href="#b"/><use x="133" y="1" xlink:href="#a"/><use x="200" y="1" xlink:href="#c"/><use x="264" y="1" xlink:href="#a"/></svg>
